X:2
%%scale 0.65
T:Peccavi
C:Michael East
%%score [1 | 2 |3 |4 |5]
M:4/2
L:1/4
K:F
V:1 name="Treble I"
Z6| z4 d4-|d2 c2 B2 A G | ^F4 G4 | z2 d2 _e4 |
d4 c2 f2 | d4 z4 | z2 g4 f2 | _e2 d c =B2 G2 |d4 d4 |
z4 z2 d2-|d2 c2 B4-|B2 A G ^F2 z2 |z2 c2 d2 d2- |d c B2 A3 A |
=B4  z2 _e2-|e "(\b)"e d2 c4 |=B c d2 g f _e2|d2 c2 =B2 c2 | d6 c2 |
=B2 c4 B2 |c2 _e f g2 f2 | z2 G A B2 A =B | c2 B c d2 c2 | d6 c2-|
c2 =B A B2 _B2-|B2 A G A4 |z2 A2 A3 A | A2 z A A/B/ c d c |B3 d d>d d f |
e2 f d2 d c2 |=B2 z e e e a2-|a g f2 e2 z2 |z c f g a2 f d | e c d B A4 |
A2 A c2 c f2 | e3 A2 G/F/ G2 | A4 z4 |Z11| z2 z ^c cccc|
A2 B G2 F E2 | D/E/F/G/ A/B/ c B/c/d/e/ f2 |e A G>A B A2 G-|G G E2 ^F>G A B | A G2 ^F G>A B/c/ d |
A2 z2 z2 ze |f3 e d c B A |G2 d2 e2 f2-|f e/d/ e2 f3 f | f f f f e4-|
e2 e2 d4 | z8 |z2 A2 F2 D E |F G A2 z2 G2 | F G A =B ^c2 A2 |
G4 ^F2 G2-|G2 ^F2 G4 |z2 d2 A3 A | A4 z2 f2 | e2 d2 ^c2 d2 | e3 e Hd4 |]
V:2 name="Treble II"
z8 | d6 c2 |B2 A G ^F2 A2-|A G F4 E D | E3 E D4 |
z4 z2 A2-|A2G2 F>E F G | A4 z2 d2-|d2 c2 B>A B c |d4 z2 g2-|
g2 f2 _e2 d c | =B2 G2 d4 |z8 | z4 z2 d2-|d2 c B A4 |
F2 G A B2 z2 | z8 | z4 z2 f2-|f2 _e2 d2 c B | A2 B c d4 |
d4 z4 | Z6 | c d _e2 f4 | _e2 d =e ^f2 g2-|g2 ^f2 g =f _e2-|
e2 d c d4-| d4 z2 f2-|f2 e d2 ^c/=B/ c2 | d2 z c c>c fe | d3 B B>B B A/B/ |
c2 c f2 f _e2 | d2 z c c c c2-|c c A2 A e f g |a3 g f4 | e f d e/d/ ^c d2 c |
d2 f e2 f d2 | ^c4 z4 |Z12| z2 z e e e e e | f>e d e2 d2 ^c |
d2 ^c/d/e/f/ g G F/G/A/=B/ |^c d2  c d/e/ f2 e-|e d2 ^c d2 d d-|d/c/ B A2 G2 G D/E/ |
F/G/A/=B/ ^c d e d2 c | d4 d2 d2-| d c B A G2 c2 | c4 c3 c | cccc ^c2 A2 |
A4 z4 |z2 e2 ^c2 d2 | A4 z4 | z2 c2 B c d e | f4 e2 d2-|
d2 ^c2 d A B2 | A3 A G2 G2 |F G A =B ^c2 f2 |e2 A3 A d2 | z2 B2 A3 A |A4 HA4 |]
V:3 name="Tenor I" clef=alto middle=c octave=-1
Z4 | z4 a4-|a2 g2 f2 e d | ^c4 d4 | A4 B2 c B |A3 A G4 |
z4 g4 | g6 a2 | g2 b4 a2 | g2 f_e d4 | _e4 d2 b2-|b2 a g ^f2 a2-|
a b c'2 d' d/e/ f g | a4 z2 g2-| g2 ^f e d2 a2-|a2 a2 f4 | d2 g4 ^f2 | g4 z2 c2-|
c c d2 _e4 | d4 c2 G2 | g f _e2 d2 c2 |  =B2 _b4 _a2 | g6 g2 | g4 g a b2 |
a b c'2 d'4 | g4 z2 g a | b a/g/ a2 g4-|g4 z g2 f/_e/ | d6 a2-|a2 gf e4 |
^f2 z =f f>g a a | f3 d f>f f f | g2 a b2 b g2 |g2 z g g g f2-| f c d2 A2 z2 | z4 z f a b|
c'2 f g2 f e2 | ^f2 =f g2 a2 a | a4 d4 | z2 a4 b2 |g3 a b2 a2-|a =b c'2 b2 a2-|
a2 ^g2 a2 e2 |f g a =b c'2 c2 | d e f e/d/ e4 | f g a2 ^g2 a2-|a2 ^g2 a>=g f e-|e e d g2 f e2 |
^f d2 d d a>d b | a g2 f e2 f2-|f2 e4 d2 | ^c3 AAAAA|d>c B c A4 | B2 A2 G/A/B/c/ d/e/f/g/|
a f e2 d2 A/B/ c | G2 A2 d>e ^f g | d8 | z4 z2 a2-| a2 a2 b2 b2-| b a g f e2 a b |
c' g c'>b a3 a | a a a a a3 e| e e e e f3 e | d2 e4 d2-|d2 ^c2 d4 | z2 A2 G A B c |
d e f g a g f2 | e4 d4-|d8| A8 | z2 e2 f2 d2 | b2 g3 g f2 | e4 H^f4 |]
V:4 name="Tenor II" clef=alto middle=c octave=-1
d6 c2 | B2 A G ^F4 | G4 d2 A =B |^c2 d4 c =B | ^c4 d4 |e4 A4 |
e4 d4 | z8 |z4z2 g2-|g2 f2 _e2 d c | =B4 c2 F2 |G2 d3 e f2 |g G/A/ B c d4 |
G4 z4 | z4 z2 f2-|f2 _e2 d2 c B |A4 B2 G2 | d4 z2 d2-|d2 c2 B2 A G |
^F2 G2 A4 | G4 z2 G2-|G G G2 G4 |G A=B2 c4 | d2 G2 g f _e2 |d4 z2 f2-|
f2 _e2 d3 d | =e2 c d _e2 d =e |f2 _e2 d4 | c2 G2 d2 _e2 | d3 c =B2 c2 | G6 g2-|
g2 ^f e f d2 c/B/ |A8 | d2 z A A>G F c | d3 f d>d d d |G2 F F2 F c2 |
d2 z c c c F f-|f e d2 ^c =c d e |f3 e d4 | c A B G A4| d3 c2 A d2 |A4 z2 d2 |
f2 e3 d d2-|d2 ^c2 de f2-|f2 e2 d3 =c |=BA B2 A3 a-|a g f2 e3 f-|f e d3 ^c/=B/ c2 |
d2 d4 c2 |=B4 ^c2 =c2-|c2 d e>d d2 ^c | d>A B A2 ^f>f g | f e2 d ^c2 a2-|a2 g4 f2 |
e4 z4 | Z4 | z2 z d G/A/B/c/ d2 | z f e d ^c d e2 | d3 e f e d c | B6 A2 |
G4 F3 F | F F F F A3 ^c |^c c c c A4 | B2 G4 F2 |E4 D E F G |A B c2 d4 |
Z2 |z2 d2 B c d e | f4 e2 d2 | A3 A A4 | G g2 f e2 d2-|d ^c/=B/ c2 Hd4|]
V:5 clef=bass name=Bass middle=d octave=-2
Z3 | z4 a4-|a2 g2 f2 e d | ^c4 d4 | A4 B>c d e | f4 g4 |
d4 _e4 | B4 c4 | G4 z4 |z2 g4 f2 | _e2 d c =B4 |
c4 g4 | d4 z2 d'2-|d'2 c'2 b2 a g |^f4 g4 | d8-|d4 d4-|
d8 | G4 z2 c2-|c c =B2 c4 | G2 g f _e d c2 |=B2 c2 G4 |
g4 f4 |g8 | c4 z4 |Z6 | z2 z f f>e d A |
B3 B B>B B d | c2 f B2 B c2 |G2 z2 z4 | Z4 | z2 a2 b4|
a3 g ^f2 g>=f |e d e2 d3 e |f2 c2 d4|e3 d ^c =B c2 |d4 A4 |
B4 A2 a g |f e d2 e4-| e4 a>e f A-|Ac B G A4 | d2 g ^f2 d>d G |
A2 A2 A4 |a3 =b c' e f>g | a4 z4 | Z4 |z4 z g G/A/B/c/ |
d/e/f/g/ a b a f a>g | f e d c B4-|B2 B2 c4-|c4 f4 |z4 z2 z A|
A A A A d3 c |B2 c2 A4-|A4 B4 | A4 z4 |Z2 |
d4 G A B c | d e f g a2 d2-|d d ^c2 d4 |G4 A4-|A2 A2 Hd4 |]

